X: 1
T:Greeting to Ireland -- Reel
M:C|
L:1/8
R:reel
B:Ryan's Mammoth Collection
N:322
Z:Contributed by Ray Davies,  ray:davies99.freeserve.co.uk
K:G
uD2|\
G2{c}BA (BG)GB | ABcd "4"edcB | A2(AB) cBAG | FGAG FDEF |
G2{c}BA (BG)GB | A2{d}cB (cA)AB | cdef gfge | dB((3cBA) G2:|
|:ud2|\
dggg fgaf | gfge d2(ef) | {a}gfge dBcA | BGAG FDEF |
G2{c}BA (BG)GB | A2{d}cB (cA)AB | cdef {a}gfge |dB((3cBA) G2:|
